X:190
T: ES WAR EINE STOLZE JUEDIN
N: E0098C
O: Europa, Mitteleuropa, Deutschland, Schlesien
R: erzaehlendes Volks - Lied, Sage, Liebe, Leid
M: 3/4
L: 1/8
K: F
C | FGA2B2 | c2c2z
f | edc2=B2 | c4z
c | fAc2de | f2c2z
c | def2ed | c2A2z
c | dBA2G2 | F4z

@@@ Tune index: 3840
